icons/show-required-parameters-32.svg

<svg id="icons" xmlns="http://www.w3.org/2000/svg" viewBox="0 0 32 32"><defs><style>.cls-1{fill:none;}</style></defs><path d="M3.5,8h17A1.50164,1.50164,0,0,0,22,6.5v-2A1.50164,1.50164,0,0,0,20.5,3H3.5A1.50164,1.50164,0,0,0,2,4.5v2A1.50164,1.50164,0,0,0,3.5,8ZM3,4.5A.50034.50034,0,0,1,3.5,4h17a.50034.50034,0,0,1,.5.5v2a.50034.50034,0,0,1-.5.5H3.5A.50034.50034,0,0,1,3,6.5ZM5,18V17H7v1Zm3,0V17h2v1ZM4,21v1H3.5A1.50164,1.50164,0,0,1,2,20.5v-2A1.50164,1.50164,0,0,1,3.5,17H4v1H3.5a.50034.50034,0,0,0-.5.5v2a.50034.50034,0,0,0,.5.5Zm3,0v1H5V21ZM5,11V10H7v1Zm3,0V10h2v1ZM4,14v1H3.5A1.50164,1.50164,0,0,1,2,13.5v-2A1.50164,1.50164,0,0,1,3.5,10H4v1H3.5a.50034.50034,0,0,0-.5.5v2a.50034.50034,0,0,0,.5.5Zm10-3V10h2v1Zm-3,0V10h2v1Zm6,0V10h2v1Zm-1,3v1H14V14Zm3,0v1H17V14ZM7,14v1H5V14Zm15-2.5v2A1.50164,1.50164,0,0,1,20.5,15H20V14h.5a.50034.50034,0,0,0,.5-.5v-2a.50034.50034,0,0,0-.5-.5H20V10h.5A1.50164,1.50164,0,0,1,22,11.5ZM13,14v1H11V14Zm-3,0v1H8V14Zm2.67328,4H11V17h3.16266C13.63483,17.3183,13.13641,17.65326,12.67328,18Zm4.37733,5.55562.00021-.038-.00062-.03795a3.4392,3.4392,0,0,1,3.41388-3.42962c.012-.00012.05985-.00012.07184,0a3.4392,3.4392,0,0,1,3.41388,3.42962l-.00062.03795.00021.038a3.44984,3.44984,0,0,1-6.89878,0Zm3.48009-5.612q.032,0,.064.0002c4.55149.10222,8.33289,4.33275,9.31184,5.54467l-.00484.00573.00478.00578c-.99166,1.20154-4.81631,5.49074-9.36863,5.545h-.01431c-4.55232-.0543-8.43838-4.3435-9.43-5.545l.00478-.00578-.00484-.00573c.97895-1.21192,4.82176-5.44245,9.37325-5.54467Q20.49873,17.9436,20.5307,17.94362Zm0,12.002.01107,0c5.66339-.06272,10.04717-5.89479,10.2346-6.1468L31,23.5l-.22047-.30117c-.18477-.254-4.509-6.03318-10.17143-6.1555-.02582-.00021-.129-.00021-.15479,0-5.66241.12232-10.04807,5.90154-10.23284,6.1555L10,23.5l.22363.29883c.18743.252,4.63262,6.08408,10.296,6.1468ZM8.61981,22H8V21H9.43823C8.9657,21.53912,8.6803,21.91724,8.61981,22Z"/><rect class="cls-1" width="32" height="32"/></svg>

<svg xmlns="http://www.w3.org/2000/svg" viewBox="0 0 32 32"><path d="M3.5 8h17A1.502 1.502 0 0 0 22 6.5v-2A1.502 1.502 0 0 0 20.5 3h-17A1.502 1.502 0 0 0 2 4.5v2A1.502 1.502 0 0 0 3.5 8zM3 4.5a.5.5 0 0 1 .5-.5h17a.5.5 0 0 1 .5.5v2a.5.5 0 0 1-.5.5h-17a.5.5 0 0 1-.5-.5zM5 18v-1h2v1zm3 0v-1h2v1zm-4 3v1h-.5A1.502 1.502 0 0 1 2 20.5v-2A1.502 1.502 0 0 1 3.5 17H4v1h-.5a.5.5 0 0 0-.5.5v2a.5.5 0 0 0 .5.5zm3 0v1H5v-1zM5 11v-1h2v1zm3 0v-1h2v1zm-4 3v1h-.5A1.502 1.502 0 0 1 2 13.5v-2A1.502 1.502 0 0 1 3.5 10H4v1h-.5a.5.5 0 0 0-.5.5v2a.5.5 0 0 0 .5.5zm10-3v-1h2v1zm-3 0v-1h2v1zm6 0v-1h2v1zm-1 3v1h-2v-1zm3 0v1h-2v-1zM7 14v1H5v-1zm15-2.5v2a1.502 1.502 0 0 1-1.5 1.5H20v-1h.5a.5.5 0 0 0 .5-.5v-2a.5.5 0 0 0-.5-.5H20v-1h.5a1.502 1.502 0 0 1 1.5 1.5zM13 14v1h-2v-1zm-3 0v1H8v-1zm2.673 4H11v-1h3.163c-.528.318-1.027.653-1.49 1zm4.378 5.556v-.076a3.44 3.44 0 0 1 3.413-3.43h.072a3.44 3.44 0 0 1 3.414 3.43v.076a3.45 3.45 0 0 1-6.9 0zm3.48-5.612h.064c4.551.102 8.333 4.333 9.312 5.544l-.005.006.004.006c-.991 1.202-4.816 5.49-9.368 5.545h-.014c-4.553-.054-8.439-4.343-9.43-5.545l.004-.006-.005-.006c.98-1.211 4.822-5.442 9.374-5.544h.064zm0 12.002h.01c5.664-.063 10.048-5.895 10.235-6.147L31 23.5l-.22-.301c-.185-.254-4.51-6.033-10.172-6.156h-.155c-5.662.123-10.048 5.902-10.233 6.156L10 23.5l.224.299c.187.252 4.632 6.084 10.296 6.147zM8.62 22H8v-1h1.438c-.472.54-.758.917-.818 1z"/><path fill="none" d="M0 0h32v32H0z"/></svg>
